X:1007
T:Swinging on a Gate
N:For the dance "Square-line Special" by Gary Roodman
S:Colin Hume's website,  colinhume.com  - chords can also be printed below the stave.
Q:1/2=112
M:4/4
L:1/8
K:G
P:A
|: d2 | "G"gedB G2AB | "Am"cABG "D7"AGEG | "G"DGBd "Em"g2g2 | "Am"fgag "D7"fdef |
"G"gedB G2AB | "Am"cABG "D7"AGEG | "C"cABG AGEG | "D7"DGGF "G"G2 :|
P:B
|: d2 | "G"gfga bagf | "Em"gfed B2AG | "Am"EAAB cBAG | "Am"EAAB "D7"cdef |
"G"gfga bagf | "Em"gfed edBd | "C"cABG "Am"AGEG | "D7"DGGA "G"G2 :|

